X:1
T:Title
%%score { ( 1 4 ) | ( 2 3 ) }
L:1/8
M:6/8
K:Eb
V:1 treble nm="Grand Piano"
V:4 treble 
V:2 bass 
V:3 bass 
V:1
 z3 z2[Q:1/4=100] E | E2 G [GB]2 [Ge] | [B,GB]3 [B,EG]2 [G,E] | [B,DA]2 [B,DA] .[B,DA]2 [B,DA] | %4
[M:5/8] G- G3 z |[M:1/8] E |[M:3/4] E2 G [GB]2 [Ge] |[M:5/8] [B,GB]3 [B,EG]2 |[M:1/8] [G,E] | %9
[M:3/4] [CEF]2 [CEF]D- [DG]F |[M:5/8] E- E3 z |[M:1/8] [FA] |[M:3/4] [FA]2 [EG][DF] [EG][FA] | %13
[M:5/8] [GB]3 [EG]2 |[M:1/8] [Ge] |[M:3/4] .[Ee]2 [Ec][DB] c[C=A] |[M:5/8] B- B3 z | %17
[M:1/8] [A,DF] |[M:3/4] [G,E]2 [B,EG] [B,GB]2 [Ge] | [CAe]2 [Ec] [CEA]2 [Ec] | .B2 z2 z2 | %21
[M:5/8] [G,E]-[G,E]- [G,E]3 |] %22
V:2
 z3 z2 [E,G,] | [E,G,]2 [E,B,E] [E,B,]2 [E,B,] | E,3 E,2 E, | B,,2 B,, z[K:treble] B[K:bass]B,, | %4
[M:5/8] [E,B,E]- [E,B,E]3 z |[M:1/8] [E,G,] |[M:3/4] [E,G,]2 [E,B,E] [E,B,]2 [E,B,] | %7
[M:5/8] E,3 E,2 |[M:1/8] G,, |[M:3/4] A,,2 .A,,2 B,[B,,A,] |[M:5/8] [E,G,]- [E,G,]3 z | %11
[M:1/8] [B,,B,] |[M:3/4] [B,,B,]2 [B,,B,] [B,,B,]2 [B,,B,] |[M:5/8] [E,B,]3 [E,B,]2 | %14
[M:1/8] [E,B,] |[M:3/4] z[K:treble] d[K:bass] .E,2 EF, |[M:5/8] z z z2 A |[M:1/8] B,, | %18
[M:3/4] E,2 E, E,2 [E,B,] | z2 A, A,,2 [A,,A,] | G,A, .[B,,G,]2 B,B,, |[M:5/8] E,-E,- E,3 |] %22
V:3
 x6 | x6 | x6 | z3 .B,,3[K:treble][K:bass] |[M:5/8] x5 |[M:1/8] x |[M:3/4] x6 |[M:5/8] x5 | %8
[M:1/8] x |[M:3/4] z2 z .B,,3 |[M:5/8] x5 |[M:1/8] x |[M:3/4] x6 |[M:5/8] x5 |[M:1/8] x | %15
[M:3/4] [E,G,]2[K:treble][K:bass] z .F,3 |[M:5/8] B,,-B,,- B,,3 |[M:1/8] x |[M:3/4] x6 | A,,4 z2 | %20
 B,,2 z .B,,3 |[M:5/8] x5 |] %22
V:4
 x6 | x6 | x6 | x6 |[M:5/8] x5 |[M:1/8] x |[M:3/4] x6 |[M:5/8] x5 |[M:1/8] x | %9
[M:3/4] z2 z [A,F] z2 |[M:5/8] x5 |[M:1/8] x |[M:3/4] x6 |[M:5/8] x5 |[M:1/8] x |[M:3/4] z2 F2 z2 | %16
[M:5/8] [B,D]-[B,D]- [B,D]3 |[M:1/8] x |[M:3/4] x6 | x6 | E-[Ec] [EB][CEA] [DG][A,DF] | %21
[M:5/8] x5 |] %22

